src/content/docs/images/setting-up.svg

<svg width="512" height="195" viewBox="0 0 512 195" fill="none" xmlns="http://www.w3.org/2000/svg">
<g clip-path="url(#clip0_9781_5587)">
<rect width="512" height="195" fill="#1A1A22"/>
<g style="mix-blend-mode:soft-light" opacity="0.3">
<path d="M334.717 104.931C267.606 149.666 226.46 205.822 158.554 103.949C90.6485 2.07477 90.0045 -116.775 157.116 -161.509C224.228 -206.244 333.681 -159.923 401.587 -58.0494C469.493 43.8243 401.829 60.1967 334.717 104.931Z" fill="white"/>
</g>
<g style="mix-blend-mode:soft-light" opacity="0.3">
<path d="M354.451 134.537C287.339 179.271 246.194 235.428 178.288 133.554C110.382 31.6801 109.738 -87.1694 176.85 -131.904C243.962 -176.638 353.415 -130.318 421.321 -28.4441C489.227 73.4296 421.563 89.8021 354.451 134.537Z" fill="white"/>
</g>
<g style="mix-blend-mode:soft-light" opacity="0.3">
<path d="M374.185 164.141C307.073 208.876 265.928 265.032 198.022 163.159C130.116 61.285 129.472 -57.5645 196.584 -102.299C263.695 -147.033 373.149 -100.713 441.055 1.16076C508.961 103.035 441.296 119.407 374.185 164.141Z" fill="white"/>
</g>
<g style="mix-blend-mode:soft-light" opacity="0.3">
<path d="M393.919 193.747C326.807 238.482 285.662 294.638 217.756 192.765C149.85 90.8908 149.206 -27.9587 216.318 -72.6932C283.43 -117.428 392.883 -71.1071 460.789 30.7666C528.695 132.64 461.031 149.013 393.919 193.747Z" fill="white"/>
</g>
<g style="mix-blend-mode:soft-light" opacity="0.3">
<path d="M413.653 223.353C346.542 268.087 305.396 324.244 237.49 222.37C169.585 120.496 168.941 1.64667 236.052 -43.0878C303.164 -87.8223 412.617 -41.5018 480.523 60.3719C548.429 162.246 480.765 178.618 413.653 223.353Z" fill="white"/>
</g>
<g style="mix-blend-mode:soft-light" opacity="0.3">
<path d="M433.387 252.957C366.275 297.692 325.13 353.848 257.224 251.975C189.318 150.101 188.674 31.2515 255.786 -13.483C322.897 -58.2175 432.351 -11.8969 500.257 89.9768C568.162 191.851 500.498 208.223 433.387 252.957Z" fill="white"/>
</g>
<g style="mix-blend-mode:soft-light" opacity="0.3">
<path d="M453.121 282.563C386.009 327.297 344.864 383.454 276.958 281.58C209.052 179.706 208.408 60.8569 275.52 16.1224C342.631 -28.6121 452.085 17.7084 519.991 119.582C587.897 221.456 520.232 237.828 453.121 282.563Z" fill="white"/>
</g>
<path d="M48 54L42 48M48 54C50.7937 52.9375 53.4738 51.5975 56 50M48 54V64C48 64 54.06 62.9 56 60C58.16 56.76 56 50 56 50M42 48C43.0643 45.2389 44.4044 42.5921 46 40.1C48.3304 36.374 51.5752 33.3061 55.426 31.1882C59.2768 29.0703 63.6053 27.9727 68 28C68 33.44 66.44 43 56 50M42 48L32 48C32 48 33.1 41.94 36 40C39.24 37.84 46 40 46 40M33 57.0002C30 59.5202 29 67.0002 29 67.0002C29 67.0002 36.48 66.0002 39 63.0002C40.42 61.3202 40.4 58.7402 38.82 57.1802C38.0426 56.4382 37.0186 56.0094 35.9445 55.9762C34.8703 55.943 33.8218 56.3076 33 57.0002Z" stroke="white" stroke-width="3.91697" stroke-linecap="round" stroke-linejoin="round"/>
</g>
<defs>
<clipPath id="clip0_9781_5587">
<rect width="512" height="195" fill="white"/>
</clipPath>
</defs>
</svg>

<svg xmlns="http://www.w3.org/2000/svg" width="512" height="195" fill="none" viewBox="0 0 512 195"><g clip-path="url(#a)"><path fill="#1a1a22" d="M0 0h512v195H0z"/><path fill="#fff" d="M334.717 104.931c-67.111 44.735-108.257 100.891-176.163-.982-67.905-101.874-68.55-220.724-1.438-265.458s176.565 1.586 244.471 103.46.242 118.246-66.87 162.98" opacity=".3" style="mix-blend-mode:soft-light"/><path fill="#fff" d="M354.451 134.537c-67.112 44.734-108.257 100.891-176.163-.983s-68.55-220.723-1.438-265.458c67.112-44.734 176.565 1.586 244.471 103.46s.242 118.246-66.87 162.981" opacity=".3" style="mix-blend-mode:soft-light"/><path fill="#fff" d="M374.185 164.141c-67.112 44.735-108.257 100.891-176.163-.982s-68.55-220.723-1.438-265.458c67.111-44.734 176.565 1.586 244.471 103.46s.241 118.246-66.87 162.98" opacity=".3" style="mix-blend-mode:soft-light"/><path fill="#fff" d="M393.919 193.747c-67.112 44.735-108.257 100.891-176.163-.982s-68.55-220.724-1.438-265.458 176.565 1.586 244.471 103.46.242 118.246-66.87 162.98" opacity=".3" style="mix-blend-mode:soft-light"/><path fill="#fff" d="M413.653 223.353c-67.111 44.734-108.257 100.891-176.163-.983-67.905-101.874-68.549-220.723-1.438-265.458 67.112-44.734 176.565 1.586 244.471 103.46s.242 118.246-66.87 162.981" opacity=".3" style="mix-blend-mode:soft-light"/><path fill="#fff" d="M433.387 252.957c-67.112 44.735-108.257 100.891-176.163-.982s-68.55-220.723-1.438-265.458c67.111-44.734 176.565 1.586 244.471 103.46 67.905 101.874.241 118.246-66.87 162.98" opacity=".3" style="mix-blend-mode:soft-light"/><path fill="#fff" d="M453.121 282.563c-67.112 44.734-108.257 100.891-176.163-.983s-68.55-220.723-1.438-265.458c67.111-44.734 176.565 1.586 244.471 103.46s.241 118.246-66.87 162.981" opacity=".3" style="mix-blend-mode:soft-light"/><path stroke="#fff" stroke-linecap="round" stroke-linejoin="round" stroke-width="3.917" d="m48 54-6-6m6 6a44.7 44.7 0 0 0 8-4m-8 4v10s6.06-1.1 8-4c2.16-3.24 0-10 0-10m-14-2a44 44 0 0 1 4-7.9A25.76 25.76 0 0 1 68 28c0 5.44-1.56 15-12 22m-14-2H32s1.1-6.06 4-8c3.24-2.16 10 0 10 0M33 57c-3 2.52-4 10-4 10s7.48-1 10-4c1.42-1.68 1.4-4.26-.18-5.82A4.36 4.36 0 0 0 33 57"/></g><defs><clipPath id="a"><path fill="#fff" d="M0 0h512v195H0z"/></clipPath></defs></svg>
